dist/images/svg/shopping_cart_default.svg

<svg width="30" height="28" viewBox="0 0 30 28" fill="none" xmlns="http://www.w3.org/2000/svg">
<path d="M28.8162 19.8503H8.90202L9.90191 17.7365L26.5154 17.7052C27.0772 17.7052 27.5588 17.2887 27.6591 16.7125L29.9599 3.34598C30.0201 2.99541 29.9298 2.63444 29.7091 2.36023C29.6 2.22528 29.4639 2.11658 29.3103 2.04166C29.1567 1.96674 28.9892 1.9274 28.8195 1.92637L7.68476 1.85348L7.50418 0.971861C7.39048 0.40957 6.90224 0 6.34712 0H1.18047C0.86739 0 0.567133 0.129087 0.345752 0.358864C0.124371 0.588641 0 0.900285 0 1.22524C0 1.55019 0.124371 1.86184 0.345752 2.09161C0.567133 2.32139 0.86739 2.45048 1.18047 2.45048H5.3907L6.17991 6.34486L8.12284 16.1086L5.62145 20.3466C5.49155 20.5286 5.4133 20.7446 5.39557 20.9704C5.37784 21.1961 5.42134 21.4225 5.52112 21.6239C5.72177 22.0369 6.12641 22.2973 6.57452 22.2973H8.67462C8.2269 22.9145 7.98508 23.6662 7.98573 24.4388C7.98573 26.4034 9.52402 28 11.4168 28C13.3096 28 14.8478 26.4034 14.8478 24.4388C14.8478 23.6648 14.6004 22.9116 14.159 22.2973H19.5463C19.0986 22.9145 18.8568 23.6662 18.8574 24.4388C18.8574 26.4034 20.3957 28 22.2885 28C24.1812 28 25.7195 26.4034 25.7195 24.4388C25.7195 23.6648 25.4721 22.9116 25.0307 22.2973H28.8195C29.4683 22.2973 30 21.7489 30 21.072C29.9981 20.7474 29.8725 20.4368 29.6507 20.2079C29.4289 19.979 29.1289 19.8504 28.8162 19.8503ZM8.17635 4.26925L27.4317 4.33519L25.5456 15.2964L10.4202 15.3242L8.17635 4.26925ZM11.4168 25.5356C10.8349 25.5356 10.36 25.0428 10.36 24.4388C10.36 23.8349 10.8349 23.342 11.4168 23.342C11.9987 23.342 12.4735 23.8349 12.4735 24.4388C12.4735 24.7297 12.3622 25.0087 12.164 25.2144C11.9658 25.4201 11.6971 25.5356 11.4168 25.5356ZM22.2885 25.5356C21.7066 25.5356 21.2317 25.0428 21.2317 24.4388C21.2317 23.8349 21.7066 23.342 22.2885 23.342C22.8704 23.342 23.3452 23.8349 23.3452 24.4388C23.3452 24.7297 23.2339 25.0087 23.0357 25.2144C22.8375 25.4201 22.5687 25.5356 22.2885 25.5356Z" fill="#A65CF0"/>
</svg>

<svg width="30" height="28" fill="none" xmlns="http://www.w3.org/2000/svg"><path d="M28.816 19.85H8.902l1-2.114 16.613-.03c.562 0 1.044-.417 1.144-.994l2.3-13.366a1.24 1.24 0 0 0-.25-.986 1.177 1.177 0 0 0-.399-.318 1.135 1.135 0 0 0-.49-.116L7.684 1.853l-.18-.881C7.39.41 6.901 0 6.346 0H1.18C.867 0 .567.13.346.359A1.25 1.25 0 0 0 0 1.225c0 .325.124.637.346.867.221.23.521.358.834.358h4.21l.79 3.895 1.943 9.764-2.502 4.238a1.253 1.253 0 0 0-.1 1.277c.2.413.605.673 1.054.673h2.1a3.645 3.645 0 0 0-.69 2.142c0 1.964 1.539 3.561 3.432 3.561s3.43-1.597 3.43-3.561c0-.774-.247-1.527-.688-2.142h5.387a3.645 3.645 0 0 0-.689 2.142c0 1.964 1.539 3.561 3.431 3.561 1.893 0 3.431-1.597 3.431-3.561 0-.774-.247-1.527-.688-2.142h3.789c.648 0 1.18-.548 1.18-1.225a1.253 1.253 0 0 0-.35-.864 1.163 1.163 0 0 0-.834-.358ZM8.176 4.27l19.256.065-1.886 10.961-15.126.028L8.176 4.27Zm3.24 21.266c-.581 0-1.056-.493-1.056-1.097s.475-1.097 1.057-1.097 1.056.493 1.056 1.097c0 .29-.11.57-.309.775a1.037 1.037 0 0 1-.747.322Zm10.872 0c-.581 0-1.056-.493-1.056-1.097s.475-1.097 1.056-1.097c.582 0 1.057.493 1.057 1.097 0 .29-.111.57-.31.775a1.038 1.038 0 0 1-.747.322Z" fill="#A65CF0"/></svg>
